X:556
T:Banks of the Allan, The
B:Kerr's Merry Melodies Bk.1
Z:Nigel Gatherer
L:1/8
M:6/8
K:D
DE | FGF FED | FAA A2d | Bdd Add | Bdd Add |
     FGF FED | FAA A2d | BdB AFD | FEE E  :|
de | fgf fed | faa a2g | fgf fed | gbb b2a |
     fga efg | def fed | BdB AFD | FEE E  :|
<end>
<start>
